packages/tokens/icons/thumbsUp/size16Px.svg

<svg viewBox="0 0 16 16" fill="none" xmlns="http://www.w3.org/2000/svg" width="1em" height="1em"><path d="M1.5 6C1.5 5.72386 1.72386 5.5 2 5.5H4C4.27614 5.5 4.5 5.72386 4.5 6L4.5 13C4.5 13.2761 4.27614 13.5 4 13.5H2C1.72386 13.5 1.5 13.2761 1.5 13L1.5 6Z" stroke="currentColor"/><path d="M12 13.5L6.97214 13.5C6.66165 13.5 6.35542 13.4277 6.07771 13.2889L4.5 12.5" stroke="currentColor"/><path d="M9.5 5C9.22386 5 9 5.22386 9 5.5C9 5.77614 9.22386 6 9.5 6V5ZM9.5 6L13.5 6V5L9.5 5V6ZM13.5 7H13V8H13.5V7ZM14 6.5C14 6.77614 13.7761 7 13.5 7V8C14.3284 8 15 7.32843 15 6.5H14ZM13.5 6C13.7761 6 14 6.22386 14 6.5H15C15 5.67157 14.3284 5 13.5 5V6Z" fill="currentColor"/><path d="M11 7.5H13C13.5523 7.5 14 7.94772 14 8.5V8.5C14 9.05228 13.5523 9.5 13 9.5H11" stroke="currentColor" stroke-linecap="round"/><path d="M12 9.5H12.5C13.0523 9.5 13.5 9.94772 13.5 10.5V10.5C13.5 11.0523 13.0523 11.5 12.5 11.5H11" stroke="currentColor" stroke-linecap="round"/><path d="M11 11.5H12C12.5523 11.5 13 11.9477 13 12.5V12.5C13 13.0523 12.5523 13.5 12 13.5H10.5" stroke="currentColor" stroke-linecap="round"/><path d="M4.50002 5.99996C6.81108 5.99996 7.50007 4.75549 7.50007 3.56506C7.50007 3.16785 7.50007 2.8058 7.50006 2.49968C7.50006 1.94743 7.94772 1.50004 8.49998 1.49999V1.49999C9.05228 1.49995 9.50004 1.94767 9.50004 2.49997L9.50006 4.50001L9.5 5.5" stroke="currentColor"/></svg>

<svg xmlns="http://www.w3.org/2000/svg" fill="none" viewBox="0 0 16 16" width="1em" height="1em"><path stroke="currentColor" d="M1.5 6a.5.5 0 0 1 .5-.5h2a.5.5 0 0 1 .5.5v7a.5.5 0 0 1-.5.5H2a.5.5 0 0 1-.5-.5V6ZM12 13.5H6.972a2 2 0 0 1-.894-.211L4.5 12.5"/><path fill="currentColor" d="M9.5 5a.5.5 0 0 0 0 1V5Zm0 1h4V5h-4v1Zm4 1H13v1h.5V7Zm.5-.5a.5.5 0 0 1-.5.5v1A1.5 1.5 0 0 0 15 6.5h-1Zm-.5-.5a.5.5 0 0 1 .5.5h1A1.5 1.5 0 0 0 13.5 5v1Z"/><path stroke="currentColor" stroke-linecap="round" d="M11 7.5h2a1 1 0 0 1 1 1v0a1 1 0 0 1-1 1h-2m1 0h.5a1 1 0 0 1 1 1v0a1 1 0 0 1-1 1H11m0 0h1a1 1 0 0 1 1 1v0a1 1 0 0 1-1 1h-1.5"/><path stroke="currentColor" d="M4.5 6c2.311 0 3-1.245 3-2.435V2.5a1 1 0 0 1 2 0v3"/></svg>
